X: 1
T: String Quartet in G Minor opus 74 no 3 mvt 2
C: Franz Joseph Haydn
%%abc-version 2.0
%%abcx-abcm2ps-target-version 5.9.1 (29 Sep 2008)
%%abc-creator hum2abc beta
%%abcx-conversion-date 2021/02/14 14:38:16
%%abc-copyright Copyright (c) 1994, 2000 Center for Computer Assisted Research in the Humanities
%%abc-edited-by Frances Bennion
%%abcx-initial-encoding-date 1997/04/15
%%gracespace 0 6 6
%%humdrum-veritas 1192074969
%%humdrum-veritas-data 276062603
%%linebreak <none>
%%barnumbers 0
L: 1/16
M: 4/4
N: Derived from op74n3-02.krn
Q: "Largo assai"
%%staves [1 2 3 4]
V: 1
V: 2
V: 3 clef=alto
V: 4 clef=bass
K: E
[V:1]G8 F2z2 E2z2 [I:setbarnb2]|
[V:2]E8 D2z2 E2z2 |
[V:3]B,8- B,2z2 B,2z2 |
[V:4]E,8 A,2z2 G,2z2 |
[V:1]A12 z4 |
[V:2]F12 z4 |
[V:3]B,12 z4 |
[V:4]D,12 z4 |
[V:1]G8 F2z2 E2z2 |
[V:2]E8 D2z2 E2z2 |
[V:3]B,8- B,2z2 B,2z2 |
[V:4]E,8 A,2z2 G,2z2 |
[V:1]c12 z4 |
[V:2]A12 z4 |
[V:3]A,12 z4 |
[V:4]D,12 z4 |
[V:1]B8 ^A4 B4 |
[V:2]G8 =G4 F4 |
[V:3]B,8 C4 B,4 |
[V:4]E,12 D,4 |
[V:1]e12 d4 |
[V:2]F16 |
[V:3]^A,12 B,4 |
[V:4]C,12 B,,4 |
[V:1]g8 ^^f4 g4 |
[V:2]B,8 B8 |
[V:3]B,16 |
[V:4]E,8 D,4 E,4 |
[V:1][b12B12] ^e4 |
[V:2]^E8 ^e4 B,4 |
[V:3][=D16B,16] |
[V:4][=G,,8=D,8] [=G,8B,8] |
[V:1]f8- fegd fce^A |
[V:2]D8 E8 |
[V:3]B,4 ^B,4 C8 |
[V:4]F,16 |
[V:1]c8 B4 A4 |
[V:2]E8 D4 z4 |
[V:3]^A,8 B,4 z4 |
[V:4]B,,4 F,4 B,4 z4 |
[V:1]G8 F4 E4 |
[V:2]D12 E4 |
[V:3]G,16 |
[V:4]^B,,8 C,8 |
[V:1]=G8 F4 E4 |
[V:2]=D8 C8 |
[V:3]=G,4 =D,4 E,4 F,4 |
[V:4]B,,8 ^A,,8 |
[V:1]D4 E4 A4 G4 |
[V:2]B,16- |
[V:3]F,4 E,4 D,4 E,4 |
[V:4]A,,4 G,,4 F,,4 E,,4 |
[V:1]F4 zB,^A,B, CDEF GA/B/c/d/e/f/ |
[V:2]B,4 z12 |
[V:3]D,4 z12 |
[V:4]B,,4 z12 |
[V:1]g8 f2z2 e2z2 |
[V:2]e8 d2z2 e2z2 |
[V:3]B8- B2z2 B2z2 |
[V:4]E8 A2z2 G2z2 |
[V:1]a12 z4 |
[V:2]f12 z4 |
[V:3]B12 z4 |
[V:4]F12 z4 |
[V:1]g8 f2z2 e2z2 |
[V:2]e8 d2z2 e2z2 |
[V:3]B8- B2z2 B2z2 |
[V:4]E8 A2z2 G2z2 |
[V:1]c'12 z4 |
[V:2]e12 z4 |
[V:3]^A12 z4 |
[V:4]=G12 z4 |
[V:1]f8 g4 a4 |
[V:2]=c16 |
[V:3]A8 G4 F4 |
[V:4]D16 |
[V:1]g8 f4 c'4 |
[V:2]B8 c8 |
[V:3]G8 A4 F4 |
[V:4]E8 A,8 |
[V:1]e8- edfe gfad |
[V:2]B4 ^A4 =A8- |
[V:3]G4 ^^F4 ^F8 |
[V:4]B,16 |
[V:1]f8 e4 z4 |
[V:2]A8 G4 z4 |
[V:3]D8 E4 z4 |
[V:4]E,4 B,,4 E,,4 z4 |
[V:1]E8 F4 =G4 |
[V:2]z16 |
[V:3]=G,8 A,4 B,4 |
[V:4]E,,2E,2 E,2E,2 E,2E,2 E,2E,2 |
[V:1](3:2:2A8- A=G2F2 E2|
[V:2]z16 |
[V:3]=C8- C2B,2 A,2=G,2 |
[V:4]E,,2E,2 E,2E,2 E,2E,2 E,2E,2 |
[V:1]D8 E4 F4 |
[V:2]=C8 B,4 A,4 |
[V:3]F,8 =G,4 A,4 |
[V:4]E,,2E,2 E,2E,2 E,2E,2 E,2E,2 |
[V:1]=G8 [=G,8G8] |
[V:2]B,8 B,8 |
[V:3]=G,8 =F,8 |
[V:4]E,,2E,2 E,2E,2 =D,,2=D,2 D,2D,2 |
[V:1]=G8 F4 G4 |
[V:2]=C4 E4 D4 E4 |
[V:3]E,4 =G,4 A,4 G,4 |
[V:4]=C,,2=C,2 C,2C,2 C,2C,2 C,2C,2 |
[V:1]A8 [=c8_E8] |
[V:2]=F8 [_E8=C8] |
[V:3]=C8 F,8 |
[V:4]=F,,2=F,2 F,2F,2 _A,,2A,,2 A,,2A,,2 |
[V:1]=G8- GF=FE F=D=CB, |
[V:2][E2=C2]C2 C2C2 B,8 |
[V:3]=G,2E,2 E,2E,2 =F,8 |
[V:4]=G,,2G,,2 G,,2G,,2 G,,8 |
[V:1]=C4 z12 |
[V:2]=C2=G2 G2G2 G2G2 G2G2 |
[V:3]E,2E2 E2E2 E2E2 E2E2 |
[V:4]=C,,4 z12 |
[V:1]z16 |
[V:2]=G2G2 G2G2 G2G2 G2G2 |
[V:3]E2E2 E2E2 E2E2 E2E2 |
[V:4]A,,8 B,,4 C,4 |
[V:1]A8 B4 =c4 |
[V:2]=F2F2 F2F2 F2F2 F2F2 |
[V:3]E2E2 E2E2 =D2D2 =C2C2 |
[V:4]=D,8 z8 |
[V:1]=d8 z8 |
[V:2]=F2F2 F2F2 F2F2 F2F2 |
[V:3]B,2B,2 B,2B,2 =C2C2 =D2D2 |
[V:4]=G,,8 A,,4 B,,4 |
[V:1]=G8 A4 B4 |
[V:2]E2E2 E2E2 E2E2 G2G2 |
[V:3]=D2D2 D2D2 =C2C2 D2D2 |
[V:4]=C,8 =C2C2 B,2B,2 |
[V:1]=c8 B8 |
[V:2]A2A2 A2A2 =G2G2 G2G2 |
[V:3]E2E2 E2E2 E2E2 E2E2 |
[V:4]A,2A,,2 A,,2A,,2 B,,2B,,2 B,,2B,,2 |
[V:1]^A16 |
[V:2]=G2G2 G2G2 F2F2 E2E2 |
[V:3]E2E2 E2E2 E2E2 =G2E2 |
[V:4]=C,2C,2 C,2C,2 C,2C,2 C,2C,2 |
[V:1]B12 A4 |
[V:2]E2E2 D2D2 E2E2 F2F2 |
[V:3]F2F2 B,2B,2 C2C2 D2D2 |
[V:4]B,,8 z8 |
[V:1]G8 F2z2 E2z2 |
[V:2]E8 D2z2 E2z2 |
[V:3]B,8- B,2z2 B,2z2 |
[V:4]E,8 A,2z2 G,2z2 |
[V:1]A4 z2B,2 ^A,B,CD E^EF^^F |
[V:2]F8 z8 |
[V:3]B,8 z8 |
[V:4]D,8 z8 |
[V:1]G7 (3B/A/G/ F3(3A/G/F/ E3(3G/F/E/ |
[V:2]E8 D2z2 E2z2 |
[V:3]B,8- B,2z2 B,2z2 |
[V:4]E,8 A,2z2 G,2z2 |
[V:1]c4 B/A/G/F/E/D/C/B,/ A,2z6 |
[V:2]A8 z8 |
[V:3]A,8 z8 |
[V:4]D,16 |
[V:1]B8 ^A4 B4 |
[V:2]G8 =G4 F4 |
[V:3]B,8 C4 B,4 |
[V:4]E,12 D,4 |
[V:1]e4 (3^A,CE(3F^Ac e4 d4 |
[V:2]F16 |
[V:3]^A,12 B,4 |
[V:4]C,12 B,,4 |
[V:1]g8 ^^f4 g4 |
[V:2]B,8 B8 |
[V:3]B,16 |
[V:4]E,8 D,4 E,4 |
[V:1][B4=G,4b4=D4] G,/B,/D/F/=G/B/=d/=g/ b4 ^e4 |
[V:2]^E8 ^e4 B,4 |
[V:3][=D16B,16] |
[V:4][=D,8=G,,8] [=G,8B,8] |
[V:1]f8- fegd fce^A |
[V:2]D8 E8 |
[V:3]B,4 ^B,4 C8 |
[V:4]F,16 |
[V:1]c8 B4 A4 |
[V:2]E8 D4 z4 |
[V:3]^A,8 B,4 z4 |
[V:4]B,,4 F,4 B,4 z4 |
[V:1]G8 F4 E4 |
[V:2]D12 E4 |
[V:3]G,16 |
[V:4]^B,,,D,,G,,^B,, D,G,^B,G, C4 C,4 |
[V:1]=G/G/G/G/G/G/G/G/ G/G/G/G/G/G/G/G/ F/F/F/F/F/F/F/F/ E/E/E/E/E/E/E/E/ |
[V:2]=D/D/D/D/D/D/D/D/ D/D/D/D/D/D/D/D/ C/C/C/C/C/C/C/C/ C/C/C/C/C/C/C/C/ |
[V:3]=G,/G,/G,/G,/G,/G,/G,/G,/ =D,/D,/D,/D,/D,/D,/D,/D,/ E,/E,/E,/E,/E,/E,/E,/E,/ F,/F,/F,/F,/F,/F,/F,/F,/ |
[V:4]B,,/B,,/B,,/B,,/B,,/B,,/B,,/B,,/ B,,/B,,/B,,/B,,/B,,/B,,/B,,/B,,/ ^A,,/A,,/A,,/A,,/A,,/A,,/A,,/A,,/ A,,/A,,/A,,/A,,/A,,/A,,/A,,/A,,/ |
[V:1]D/D/D/D/D/D/D/D/ E/E/E/E/E/E/E/E/ A/A/A/A/A/A/A/A/ G/G/G/G/G/G/G/G/ |
[V:2]B,/B,/B,/B,/B,/B,/B,/B,/ B,/B,/B,/B,/B,/B,/B,/B,/ B,/B,/B,/B,/B,/B,/B,/B,/ B,/B,/B,/B,/B,/B,/B,/B,/ |
[V:3]F,/F,/F,/F,/F,/F,/F,/F,/ E,/E,/E,/E,/E,/E,/E,/E,/ D,/D,/D,/D,/D,/D,/D,/D,/ E,/E,/E,/E,/E,/E,/E,/E,/ |
[V:4]A,,/A,,/A,,/A,,/A,,/A,,/A,,/A,,/ G,,/G,,/G,,/G,,/G,,/G,,/G,,/G,,/ F,,/F,,/F,,/F,,/F,,/F,,/F,,/F,,/ E,,/E,,/E,,/E,,/E,,/E,,/E,,/E,,/ |
[V:1]FB,^A,B, CDEF GABc def^^f |
[V:2]B,4 z12 |
[V:3]D,4 z12 |
[V:4]B,,4 z12 |
[V:1]g7 a/g/ f4 e4 |
[V:2]e8 d4 e4 |
[V:3]B12 B4 |
[V:4]E8 A4 G4 |
[V:1]^A/B/d/f/(3:2:6a/g/b/a/c'/ b/a2z2 z2d2 e2f2 |
[V:2]f8 z8 |
[V:3]B8 z8 |
[V:4]F8 z8 |
[V:1]g7 (3b/a/g/ f3(3a/g/f/ e3e |
[V:2]e8 d4 e4 |
[V:3]B16 |
[V:4]E8 A4 G4 |
[V:1]ee'c'^a =gec^A =GEC_B, =G,2z2 |
[V:2][e8c8] z8 |
[V:3]^A8 z8 |
[V:4]=G8 z8 |
[V:1]f4 >f4 g2g2 a2a2 |
[V:2]=c4 >c4 c2c2 c2c2 |
[V:3]A4 >A4 G2G2 F2F2 |
[V:4]D4 >D4 D2D2 D2D2 |
[V:1]g7 (3b/a/g/ c'6 b/a/g/f/ |
[V:2]B2B2 B2B2 [c2F2][c2F2] [c2F2][c2F2] |
[V:3]G2G2 G2G2 A2E2 E2E2 |
[V:4]E2E2 E2E2 A,2A,2 A,2A,2 |
[V:1]ee'd'c' bagf edcB AGAD |
[V:2]G8 A4 D4 |
[V:3]E8 F6 A,2 |
[V:4]B,12 B,,4 |
[V:1]F8 E2z6 |
[V:2]D8 E2z6 |
[V:3]A,8 G,2z6 |
[V:4]E,4 B,,4 E,,4 z4 |
[V:1]B,8 A,4 G,4 |
[V:2]z16 |
[V:3]G,8 F,4 E,4 |
[V:4]z16 |
[V:1]C8 z8 |
[V:2]z16 |
[V:3]A,8 z8 |
[V:4]A,,8 G,,4 F,,4 |
[V:1]A8 G4 F4 |
[V:2]D16 |
[V:3]F,8 G,4 A,4 |
[V:4]B,,16 |
[V:1]E4 z4 B,4 z3B, |
[V:2]E4 z4 G,4 z3G, |
[V:3]G,4 z4 E,4 z3E, |
[V:4]E,4 z4 E,,4 z3E,, |
[V:1]B,16 |]
[V:2]G,16 |]
[V:3]E,16 |]
[V:4]E,,16 |]

